X: 42878
T: Wilfred Gillis
R: jig
M: 6/8
K: Amajor
B|Ace {b}(a2f)|ecA BGE|AEC DFA|FGB {e}dcB|
Ace {b}(a2f)|ecA BGE|AEC FBG|A3 A2:|
d|cea {ag}ecA|e'c'a efg|afd bge|afd Bcd|
cea {ag}ecA|e'c'a efg|afd Bbg|a3 a2:|

